svg/credit_card_sync_outline.svg

<svg xmlns="http://www.w3.org/2000/svg" viewBox="0 0 24 24"><path d="M4 18v-6h12.05c1-.63 2.18-1 3.45-1 .89 0 1.73.18 2.5.5V6a2 2 0 0 0-2-2H4c-1.11 0-2 .89-2 2v12a2 2 0 0 0 2 2h9.5c-.26-.62-.42-1.3-.47-2zM4 6h16v2H4zm19 11.5c0 .82-.25 1.58-.67 2.21l-1.09-1.09c.17-.34.26-.72.26-1.12A2.5 2.5 0 0 0 19 15v1.5l-2.25-2.25L19 12v1.5c2.21 0 4 1.79 4 4m-4 1 2.25 2.25L19 23v-1.5c-2.21 0-4-1.79-4-4 0-.82.25-1.58.67-2.21l1.09 1.09c-.17.34-.26.72-.26 1.12A2.5 2.5 0 0 0 19 20z"/></svg>

<?xml version="1.0" encoding="UTF-8"?><!DOCTYPE svg PUBLIC "-//W3C//DTD SVG 1.1//EN" "http://www.w3.org/Graphics/SVG/1.1/DTD/svg11.dtd"><svg xmlns="http://www.w3.org/2000/svg" xmlns:xlink="http://www.w3.org/1999/xlink" version="1.1" id="mdi-credit-card-sync-outline" width="24" height="24" viewBox="0 0 24 24"><path d="M4 18V12H16.05C17.05 11.37 18.23 11 19.5 11C20.39 11 21.23 11.18 22 11.5V6C22 4.89 21.1 4 20 4H4C2.89 4 2 4.89 2 6V18C2 19.11 2.9 20 4 20H13.5C13.24 19.38 13.08 18.7 13.03 18H4M4 6H20V8H4V6M23 17.5C23 18.32 22.75 19.08 22.33 19.71L21.24 18.62C21.41 18.28 21.5 17.9 21.5 17.5C21.5 16.12 20.38 15 19 15V16.5L16.75 14.25L19 12V13.5C21.21 13.5 23 15.29 23 17.5M19 18.5L21.25 20.75L19 23V21.5C16.79 21.5 15 19.71 15 17.5C15 16.68 15.25 15.92 15.67 15.29L16.76 16.38C16.59 16.72 16.5 17.1 16.5 17.5C16.5 18.88 17.62 20 19 20V18.5Z" /></svg>
